lib/flags/so-somalia.svg

<svg xmlns="http://www.w3.org/2000/svg" fill="none" aria-hidden="true" viewBox="0 0 42 30"><g id="Country=SO - Somalia, Size=sm (36x24)" filter="url(#filter0_dd_91_25003)"><g clip-path="url(#clip0_91_25003)"><g id="flag"><mask id="mask0_91_25003" width="36" height="24" x="3" y="2" maskUnits="userSpaceOnUse" style="mask-type:alpha"><rect id="mask" width="36" height="24" x="3" y="2" fill="white"/></mask><g mask="url(#mask0_91_25003)"><g id="contents"><path id="base" fill="#56C6F5" fill-rule="evenodd" d="M3 2H39V26H3V2Z" clip-rule="evenodd"/><g id="mark"><path id="Star 5" fill="#F7FCFF" fill-rule="evenodd" d="M21.2014 16.7174L16.967 19.1105L18.3873 14.9212L15.3671 12.1841L19.531 12.1032L21.3733 7.96737L23.052 12.1578L27.206 12.2223L24.0844 15.0096L25.5421 18.995L21.2014 16.7174Z" clip-rule="evenodd"/></g></g></g></g></g></g><defs><filter id="filter0_dd_91_25003" width="42" height="30" x="0" y="0" color-interpolation-filters="sRGB" filterUnits="userSpaceOnUse"><feFlood flood-opacity="0" result="BackgroundImageFix"/><feColorMatrix in="SourceAlpha" result="hardAlpha" values="0 0 0 0 0 0 0 0 0 0 0 0 0 0 0 0 0 0 127 0"/><feOffset dy="1"/><feGaussianBlur stdDeviation="1"/><feColorMatrix values="0 0 0 0 0.0627451 0 0 0 0 0.0941176 0 0 0 0 0.156863 0 0 0 0.06 0"/><feBlend in2="BackgroundImageFix" result="effect1_dropShadow_91_25003"/><feColorMatrix in="SourceAlpha" result="hardAlpha" values="0 0 0 0 0 0 0 0 0 0 0 0 0 0 0 0 0 0 127 0"/><feOffset dy="1"/><feGaussianBlur stdDeviation="1.5"/><feColorMatrix values="0 0 0 0 0.0627451 0 0 0 0 0.0941176 0 0 0 0 0.156863 0 0 0 0.1 0"/><feBlend in2="effect1_dropShadow_91_25003" result="effect2_dropShadow_91_25003"/><feBlend in="SourceGraphic" in2="effect2_dropShadow_91_25003" result="shape"/></filter><clipPath id="clip0_91_25003"><rect width="36" height="24" x="3" y="2" fill="white" rx="2"/></clipPath></defs></svg>

<svg xmlns="http://www.w3.org/2000/svg" fill="none" aria-hidden="true" viewBox="0 0 42 30"><g filter="url(#a)"><g clip-path="url(#b)"><mask id="c" width="36" height="24" x="3" y="2" maskUnits="userSpaceOnUse" style="mask-type:alpha"><path fill="#fff" d="M3 2h36v24H3z"/></mask><g fill-rule="evenodd" clip-rule="evenodd" mask="url(#c)"><path fill="#56C6F5" d="M3 2h36v24H3V2Z"/><path fill="#F7FCFF" d="m21.201 16.717-4.234 2.393 1.42-4.189-3.02-2.737 4.164-.08 1.842-4.137 1.679 4.19 4.154.065-3.122 2.788 1.458 3.985-4.34-2.278Z"/></g></g></g><defs><clipPath id="b"><rect width="36" height="24" x="3" y="2" fill="#fff" rx="2"/></clipPath><filter id="a" width="42" height="30" x="0" y="0" color-interpolation-filters="sRGB" filterUnits="userSpaceOnUse"><feFlood flood-opacity="0" result="BackgroundImageFix"/><feColorMatrix in="SourceAlpha" result="hardAlpha" values="0 0 0 0 0 0 0 0 0 0 0 0 0 0 0 0 0 0 127 0"/><feOffset dy="1"/><feGaussianBlur stdDeviation="1"/><feColorMatrix values="0 0 0 0 0.0627451 0 0 0 0 0.0941176 0 0 0 0 0.156863 0 0 0 0.06 0"/><feBlend in2="BackgroundImageFix" result="effect1_dropShadow_91_25003"/><feColorMatrix in="SourceAlpha" result="hardAlpha" values="0 0 0 0 0 0 0 0 0 0 0 0 0 0 0 0 0 0 127 0"/><feOffset dy="1"/><feGaussianBlur stdDeviation="1.5"/><feColorMatrix values="0 0 0 0 0.0627451 0 0 0 0 0.0941176 0 0 0 0 0.156863 0 0 0 0.1 0"/><feBlend in2="effect1_dropShadow_91_25003" result="effect2_dropShadow_91_25003"/><feBlend in="SourceGraphic" in2="effect2_dropShadow_91_25003" result="shape"/></filter></defs></svg>
